X: 0
T: Nina's
C: Niall Vallely
M: 6/8
L: 1/8
K: F#m
|: "F#m"FAB c2 B | BAc BAF | "E"FAB c2 B | Bce ~f3 |
"B/D#"FAB c2 B | BAc BAB | "C#m"BAc BAF | AFE F3 :|
|: "D"~f3 ecB | BAc BAF | "E"~f3 ecB | Bce f2 f |
"D""(F#m)"fea "(E)"fea | "C#m""(D)"fec BAB | "Bm""(C#)"BAc BAF | "C#m"AFE "F#m"F3 :|]